src/pos-icons/bed.svg

<svg height="24" viewBox="0 0 24 24" width="24" xmlns="http://www.w3.org/2000/svg"><path d="m19 7h-8v7h-8v-9h-2v15h2v-3h18v3h2v-9a4 4 0 0 0 -4-4m-12 6a3 3 0 0 0 3-3 3 3 0 0 0 -3-3 3 3 0 0 0 -3 3 3 3 0 0 0 3 3z"/></svg>

<?xml version="1.0" encoding="UTF-8"?><!DOCTYPE svg PUBLIC "-//W3C//DTD SVG 1.1//EN" "http://www.w3.org/Graphics/SVG/1.1/DTD/svg11.dtd"><svg xmlns="http://www.w3.org/2000/svg" xmlns:xlink="http://www.w3.org/1999/xlink" version="1.1" id="mdi-bed" width="24" height="24" viewBox="0 0 24 24"><path d="M19,7H11V14H3V5H1V20H3V17H21V20H23V11A4,4 0 0,0 19,7M7,13A3,3 0 0,0 10,10A3,3 0 0,0 7,7A3,3 0 0,0 4,10A3,3 0 0,0 7,13Z" /></svg>
